Numix-GalliumOS/16/mimetypes/application-certificate.svg

<?xml version="1.0" encoding="UTF-8" standalone="no"?>
<svg
   xmlns:dc="http://purl.org/dc/elements/1.1/"
   xmlns:cc="http://creativecommons.org/ns#"
   xmlns:rdf="http://www.w3.org/1999/02/22-rdf-syntax-ns#"
   xmlns:svg="http://www.w3.org/2000/svg"
   xmlns="http://www.w3.org/2000/svg"
   xmlns:sodipodi="http://sodipodi.sourceforge.net/DTD/sodipodi-0.dtd"
   xmlns:inkscape="http://www.inkscape.org/namespaces/inkscape"
   width="16"
   height="16"
   viewBox="0 0 16 16"
   id="svg2984"
   version="1.1"
   inkscape:version="0.48.5 r10040"
   sodipodi:docname="application-certificate.svg">
  <metadata
     id="metadata2998">
    <rdf:RDF>
      <cc:Work
         rdf:about="">
        <dc:format>image/svg+xml</dc:format>
        <dc:type
           rdf:resource="http://purl.org/dc/dcmitype/StillImage" />
      </cc:Work>
    </rdf:RDF>
  </metadata>
  <defs
     id="defs2996" />
  <sodipodi:namedview
     pagecolor="#ffffff"
     bordercolor="#666666"
     borderopacity="1"
     objecttolerance="10"
     gridtolerance="10"
     guidetolerance="10"
     inkscape:pageopacity="0"
     inkscape:pageshadow="2"
     inkscape:window-width="1280"
     inkscape:window-height="970"
     id="namedview2994"
     showgrid="true"
     inkscape:zoom="11.313709"
     inkscape:cx="9.1420998"
     inkscape:cy="6.3282761"
     inkscape:window-x="0"
     inkscape:window-y="0"
     inkscape:window-maximized="1"
     inkscape:current-layer="svg2984">
    <inkscape:grid
       type="xygrid"
       id="grid3034" />
  </sodipodi:namedview>
  <path
     style="fill:#ce6a20;fill-opacity:1"
     d="M 2.667969,-4.46e-4 C 2.324219,-4.46e-4 2,0.337812 2,0.6964467 L 2,15.303108 C 2,15.641365 2.34375,16 2.667969,16 l 10.664062,0 C 13.65625,16 14,15.641365 14,15.303108 L 14,3.9995538 10,-4.46e-4 z"
     id="path4"
     inkscape:connector-curvature="0"
     sodipodi:nodetypes="ssssssccs" />
  <path
     style="fill:#000000;fill-opacity:0.19599998"
     d="m 10.583223,3.3315848 0.0154,0.01953 0.04005,-0.01953 z m 0.02978,0.667969 3.387,3.664062 0,-3.664062 z"
     id="path6"
     inkscape:connector-curvature="0"
     sodipodi:nodetypes="cccccccc" />
  <path
     style="fill:#ffffff;fill-opacity:0.39200003"
     d="m 10,-4.46e-4 3.996396,3.9999998 -3.383784,0 C 10.313513,3.9995538 10,3.6824368 10,3.3833378 z"
     id="path8"
     inkscape:connector-curvature="0"
     sodipodi:nodetypes="ccssc" />
  <path
     style="fill:#ffffff"
     d="m 8.0019496,3.3013834 c -0.4050862,0 -0.7514651,0.2230905 -0.9099776,0.5518564 C 6.7808188,3.6418903 6.3522493,3.6066661 6,3.7945324 5.6477507,3.9823987 5.4598844,4.3405184 5.4951086,4.6927676 5.1193761,4.6634139 4.7260307,4.8336674 4.5264235,5.1565629 4.3209444,5.4853289 4.3620405,5.8845447 4.5910029,6.1722146 4.2387536,6.3189847 3.9921784,6.6360098 3.9921784,7.0176128 c 0,0.3757326 0.2465752,0.6986281 0.5988245,0.8395278 C 4.3620405,8.1448105 4.3209444,8.5498968 4.5264235,8.8727923 4.7260307,9.2015583 5.1193761,9.3718114 5.4951086,9.3424584 5.4598846,9.6888364 5.6477507,10.052827 6,10.240693 c 0.2907474,0.154006 0.6861155,0.261047 1,0.0069 L 7,14 8.0019496,12.92953 9,14 9,10.236575 c 0.2586417,0.182301 0.7573461,0.202324 1.003899,0.0041 0.352249,-0.187866 0.540115,-0.5518566 0.504891,-0.8982346 0.375733,0.02935 0.769078,-0.1409001 0.968685,-0.4696661 0.20548,-0.3228955 0.164383,-0.7279818 -0.06458,-1.0156517 0.352249,-0.1408997 0.598824,-0.4637952 0.598824,-0.8395278 0,-0.381603 -0.246575,-0.6986281 -0.598824,-0.8453982 0.228963,-0.2876699 0.27006,-0.6868857 0.06458,-1.0156517 C 11.277868,4.8336674 10.884523,4.6634139 10.50879,4.6927676 10.544014,4.3405184 10.356148,3.9823987 10.003899,3.7945324 9.65165,3.6066661 9.2230805,3.6418903 8.9119273,3.8532398 8.7534148,3.5244739 8.4070359,3.3013834 8.0019496,3.3013834 z m 0,1.3796434 c 1.3855139,0 2.5068404,1.0391349 2.5068404,2.3189732 0,1.2857102 -1.1213265,2.3248454 -2.5068404,2.3248454 -1.3855138,0 -2.506841,-1.0391352 -2.506841,-2.3248454 0,-1.2798383 1.1213272,-2.3189732 2.506841,-2.3189732 z m 0,0.4637937 C 6.8923648,5.1448205 6,5.9784779 6,7 6,8.0273941 6.8923648,8.8610514 8.0019496,8.8610514 9.1115345,8.8610514 10.003899,8.0273941 10.003899,7 c 0,-1.0215221 -0.8923645,-1.8551795 -2.0019494,-1.8551795 z"
     id="path2992"
     inkscape:connector-curvature="0"
     sodipodi:nodetypes="scscccscccccccccccccscccscsssssssssss" />
</svg>

<svg xmlns="http://www.w3.org/2000/svg" viewBox="0 0 16 16">
 <path d="m 2.668 0 c -0.344 0 -0.668 0.338 -0.668 0.697 l 0 14.607 c 0 0.338 0.344 0.697 0.668 0.697 l 10.664 0 c 0.324 0 0.668 -0.359 0.668 -0.697 l 0 -11.304 -4 -4 z" style="fill:#ce6a20;fill-opacity:1"/>
 <path d="m 10.583 3.332 0.015 0.02 0.04 -0.02 z m 0.03 0.668 3.387 3.664 0 -3.664 z" style="fill:#000;fill-opacity:0.196"/>
 <path d="m 10 0 3.996 4 -3.384 0 c -0.299 0 -0.613 -0.317 -0.613 -0.616 z" style="fill:#fff;fill-opacity:0.392"/>
 <path d="m 8 3.301 c -0.405 0 -0.751 0.223 -0.91 0.552 c -0.311 -0.211 -0.74 -0.247 -1.092 -0.059 -0.352 0.188 -0.54 0.546 -0.505 0.898 -0.376 -0.029 -0.769 0.141 -0.969 0.464 -0.205 0.329 -0.164 0.728 0.065 1.016 -0.352 0.147 -0.599 0.464 -0.599 0.845 c 0 0.376 0.247 0.699 0.599 0.84 c -0.229 0.288 -0.27 0.693 -0.065 1.016 0.2 0.329 0.593 0.499 0.969 0.47 -0.035 0.346 0.153 0.71 0.505 0.898 c 0.291 0.154 0.686 0.261 1 0.007 l 0 3.752 1 -1.07 0.998 1.07 0 -3.763 c 0.259 0.182 0.757 0.202 1 0.004 0.352 -0.188 0.54 -0.552 0.505 -0.898 0.376 0.029 0.769 -0.141 0.969 -0.47 0.205 -0.323 0.164 -0.728 -0.065 -1.016 0.352 -0.141 0.599 -0.464 0.599 -0.84 0 -0.382 -0.247 -0.699 -0.599 -0.845 0.229 -0.288 0.27 -0.687 0.065 -1.016 c -0.2 -0.323 -0.593 -0.493 -0.969 -0.464 0.035 -0.352 -0.153 -0.71 -0.505 -0.898 -0.352 -0.188 -0.781 -0.153 -1.092 0.059 -0.159 -0.329 -0.505 -0.552 -0.91 -0.552 z m 0 1.38 c 1.386 0 2.507 1.039 2.507 2.319 0 1.286 -1.121 2.325 -2.507 2.325 -1.386 0 -2.507 -1.039 -2.507 -2.325 0 -1.28 1.121 -2.319 2.507 -2.319 z m 0 0.464 c -1.11 0 -2 0.834 -2 1.855 0 1.027 0.892 1.861 2 1.861 1.11 0 2 -0.834 2 -1.861 c 0 -1.022 -0.892 -1.855 -2 -1.855 z" style="fill:#fff"/>
</svg>
